X:2395
T:the Battering Ram
O:ireland
R:Jig
M:6/8
K:DMix
B|\
dBG BAG|dBG G2B|dBG AGE|GED D2B|\
dBG BAG|B/^c/dB BAG|AGA BGB| GED D2:|
|: B|\
deg aga|bge edB|deg aga|bge ega|\
bag age|ged e/f/ge|dBG AGE|GED D2:|
|:e/d/ |\
~B2G ~A2G|~B2D D2d|BAG AGE|EDD Ded|\
~B2G ~A2G|B/^c/dB BAG|AGA BAB|GED D2:|
